X: 4
T: McDonagh's
R: reel
M: 4/4
L: 1/8
K: Edor
|:B2Ad BEED|E2 BE E2 BE|BAFA D3E|FDFA BAFA|
B2 A=c BEED|E2 BE E2 BE|BAGF GABc|dBAG FD D2:|
|:d2ef gfed|fB B2 fB B2|d2ef gfed|ceae ceae|
d2ef gfed|fB B2 fB B2|af (3gfe fdec|dBAG FD D2:|


Tune 1963	Setting 15394

